X: 274
T: 275. O Welt, sieh hier dein Leben
N: Derived from chor275.krn
C: Johann Sebastian Bach
%%abc-version 2.0
%%abcx-abcm2ps-target-version 5.9.1 (29 Sep 2008)
%%abc-creator hum2abc beta
%%abcx-conversion-date 2019/03/11 17:28:19
%%abc-edited-by Craig Stuart Sapp
%%humdrum-veritas 4072487776
%%humdrum-veritas-data 2836663274
%%
%%barnumbers 0
L: 1/4
M: C
%%staves [1 2 3 4]
V: 1 clef=treble
V: 2 clef=treble
V: 3 clef=treble-8
V: 4 clef=bass
K: A
[V:1] c [I:setbarnb 1]| 
[V:2] G | 
[V:3] c | 
[V:4] ^E, | 
[V:1] ABc/d/e | 
[V:2] F=EEE | 
[V:3] cBAA | 
[V:4] F,G,A,C, | 
[V:1] d2!fermata!cc/d/ | 
[V:2] FE!fermata!EA | 
[V:3] AG!fermata!Ae | 
[V:4] B,,E,!fermata!A,,A, | 
[V:1] eeBc | 
[V:2] A/G/AG/F/- F/E/ | 
[V:3] eeeG | 
[V:4] C,C,/D,/E,C, | 
[V:1] A2!fermata!GE | 
[V:2] E^D!fermata!EE/=D/ | 
[V:3] F/G/A!fermata!BG | 
[V:4] F,2!fermata!E,E, | 
[V:1] ABc/d//e// d/c/ | 
[V:2] CEEA | 
[V:3] cBAf | 
[V:4] F,G,A,D, | 
[V:1] !fermata!B3c | 
[V:2] !fermata!G3G- | 
[V:3] !fermata!B3G | 
[V:4] !fermata!E,3^E, | 
[V:1] ABc/d/e | 
[V:2] G/F=E/EF | 
[V:3] cBA/B/c | 
[V:4] F,G,A,^A, | 
[V:1] d2!fermata!cc/d/ | 
[V:2] F2!fermata!FE | 
[V:3] cB!fermata!^AA | 
[V:4] B,2!fermata!F,A, | 
[V:1] eeBc | 
[V:2] E/F/GFE | 
[V:3] BBB/A/G | 
[V:4] G,F,/E,/^D,E, | 
[V:1] A2!fermata!GE | 
[V:2] F2!fermata!EC | 
[V:3] cB!fermata!BG/F/ | 
[V:4] E,^D,!fermata!E,E,/=D,/ | 
[V:1] ABcd | 
[V:2] EF/G/AG/F/ | 
[V:3] EDE/F/G | 
[V:4] C,B,,A,,B,, | 
[V:1] cB!fermata!A2 |]  
[V:2] EE/D/!fermata!C2 |]  
[V:3] AG!fermata!E2 |]  
[V:4] C,/D,/E,!fermata!A,,2 |]  



